(Projekt SpectrumPlusKeyboard_Kombi)
(Erstellt mit Estlcam Version 11 Build 11,112)
(Laufzeit ca. 00:40:54 Stunden)

(Benoetigte Werkzeuge:)
(Plexi 3mm)

G90
G91.1
M03 S8000
G00 Z15.0000


(Nr. 1: Ausschnitt 1)
G00 X-4.5011 Y-4.0852
G00 Z0.5000
G01 Z-1.7600 F200 S8000
G01 Y4.3148
G01 X-4.9404 Y4.7542
G01 X-4.5011 Y4.3148
G01 X4.4989
G01 X4.9382 Y4.7542
G01 X4.4989 Y4.3148
G01 Y-4.0852
G01 X4.9382 Y-4.5245
G01 X4.4989 Y-4.0852
G01 X-4.5011
G01 X-4.9404 Y-4.5245
G01 X-4.5011 Y-4.0852
G01 Z-3.5000
G01 Y4.3148
G01 X-4.9404 Y4.7542
G01 X-4.5011 Y4.3148
G01 X4.4989
G01 X4.9382 Y4.7542
G01 X4.4989 Y4.3148
G01 Y-4.0852
G01 X4.9382 Y-4.5245
G01 X4.4989 Y-4.0852
G01 X-4.5011
G01 X-4.9404 Y-4.5245
G01 X-4.5011 Y-4.0852
G00 Z15.0000


(Nr. 2: Ausschnitt 2)
G00 X14.4989 Y-4.0852 Z15.0000
G00 Z0.5000
G01 Z-1.7600 F200
G01 Y4.3148
G01 X14.0596 Y4.7542
G01 X14.4989 Y4.3148
G01 X23.4989
G01 X23.9382 Y4.7542
G01 X23.4989 Y4.3148
G01 Y-4.0852
G01 X23.9382 Y-4.5245
G01 X23.4989 Y-4.0852
G01 X14.4989
G01 X14.0596 Y-4.5245
G01 X14.4989 Y-4.0852
G01 Z-3.5000
G01 Y4.3148
G01 X14.0596 Y4.7542
G01 X14.4989 Y4.3148
G01 X23.4989
G01 X23.9382 Y4.7542
G01 X23.4989 Y4.3148
G01 Y-4.0852
G01 X23.9382 Y-4.5245
G01 X23.4989 Y-4.0852
G01 X14.4989
G01 X14.0596 Y-4.5245
G01 X14.4989 Y-4.0852
G00 Z15.0000


(Nr. 3: Ausschnitt 3)
G00 X33.4989 Y-4.0852 Z15.0000
G00 Z0.5000
G01 Z-1.7600 F200
G01 Y4.3148
G01 X33.0596 Y4.7542
G01 X33.4989 Y4.3148
G01 X42.4989
G01 X42.9382 Y4.7542
G01 X42.4989 Y4.3148
G01 Y-4.0852
G01 X42.9382 Y-4.5245
G01 X42.4989 Y-4.0852
G01 X33.4989
G01 X33.0596 Y-4.5245
G01 X33.4989 Y-4.0852
G01 Z-3.5000
G01 Y4.3148
G01 X33.0596 Y4.7542
G01 X33.4989 Y4.3148
G01 X42.4989
G01 X42.9382 Y4.7542
G01 X42.4989 Y4.3148
G01 Y-4.0852
G01 X42.9382 Y-4.5245
G01 X42.4989 Y-4.0852
G01 X33.4989
G01 X33.0596 Y-4.5245
G01 X33.4989 Y-4.0852
G00 Z15.0000


(Nr. 4: Ausschnitt 4)
G00 X52.4989 Y-4.0852 Z15.0000
G00 Z0.5000
G01 Z-1.7600 F200
G01 Y4.3148
G01 X52.0596 Y4.7542
G01 X52.4989 Y4.3148
G01 X61.4989
G01 X61.9382 Y4.7542
G01 X61.4989 Y4.3148
G01 Y-4.0852
G01 X61.9382 Y-4.5245
G01 X61.4989 Y-4.0852
G01 X52.4989
G01 X52.0596 Y-4.5245
G01 X52.4989 Y-4.0852
G01 Z-3.5000
G01 Y4.3148
G01 X52.0596 Y4.7542
G01 X52.4989 Y4.3148
G01 X61.4989
G01 X61.9382 Y4.7542
G01 X61.4989 Y4.3148
G01 Y-4.0852
G01 X61.9382 Y-4.5245
G01 X61.4989 Y-4.0852
G01 X52.4989
G01 X52.0596 Y-4.5245
G01 X52.4989 Y-4.0852
G00 Z15.0000


(Nr. 5: Ausschnitt 13)
G00 X57.2989 Y15.0148 Z15.0000
G00 Z0.5000
G01 Z-1.7600 F200
G01 Y23.4148
G01 X56.8596 Y23.8542
G01 X57.2989 Y23.4148
G01 X66.2989
G01 X66.7382 Y23.8542
G01 X66.2989 Y23.4148
G01 Y15.0148
G01 X66.7382 Y14.5755
G01 X66.2989 Y15.0148
G01 X57.2989
G01 X56.8596 Y14.5755
G01 X57.2989 Y15.0148
G01 Z-3.5000
G01 Y23.4148
G01 X56.8596 Y23.8542
G01 X57.2989 Y23.4148
G01 X66.2989
G01 X66.7382 Y23.8542
G01 X66.2989 Y23.4148
G01 Y15.0148
G01 X66.7382 Y14.5755
G01 X66.2989 Y15.0148
G01 X57.2989
G01 X56.8596 Y14.5755
G01 X57.2989 Y15.0148
G00 Z15.0000


(Nr. 6: Ausschnitt 12)
G00 X38.2989 Y15.0148 Z15.0000
G00 Z0.5000
G01 Z-1.7600 F200
G01 Y23.4148
G01 X37.8596 Y23.8542
G01 X38.2989 Y23.4148
G01 X47.2989
G01 X47.7382 Y23.8542
G01 X47.2989 Y23.4148
G01 Y15.0148
G01 X47.7382 Y14.5755
G01 X47.2989 Y15.0148
G01 X38.2989
G01 X37.8596 Y14.5755
G01 X38.2989 Y15.0148
G01 Z-3.5000
G01 Y23.4148
G01 X37.8596 Y23.8542
G01 X38.2989 Y23.4148
G01 X47.2989
G01 X47.7382 Y23.8542
G01 X47.2989 Y23.4148
G01 Y15.0148
G01 X47.7382 Y14.5755
G01 X47.2989 Y15.0148
G01 X38.2989
G01 X37.8596 Y14.5755
G01 X38.2989 Y15.0148
G00 Z15.0000


(Nr. 7: Ausschnitt 23)
G00 X47.6989 Y34.1148 Z15.0000
G00 Z0.5000
G01 Z-1.7600 F200
G01 Y42.5148
G01 X47.2596 Y42.9542
G01 X47.6989 Y42.5148
G01 X56.6989
G01 X57.1382 Y42.9542
G01 X56.6989 Y42.5148
G01 Y34.1148
G01 X57.1382 Y33.6755
G01 X56.6989 Y34.1148
G01 X47.6989
G01 X47.2596 Y33.6755
G01 X47.6989 Y34.1148
G01 Z-3.5000
G01 Y42.5148
G01 X47.2596 Y42.9542
G01 X47.6989 Y42.5148
G01 X56.6989
G01 X57.1382 Y42.9542
G01 X56.6989 Y42.5148
G01 Y34.1148
G01 X57.1382 Y33.6755
G01 X56.6989 Y34.1148
G01 X47.6989
G01 X47.2596 Y33.6755
G01 X47.6989 Y34.1148
G00 Z15.0000


(Nr. 8: Ausschnitt 22)
G00 X28.6989 Y34.1148 Z15.0000
G00 Z0.5000
G01 Z-1.7600 F200
G01 Y42.5148
G01 X28.2596 Y42.9542
G01 X28.6989 Y42.5148
G01 X37.6989
G01 X38.1382 Y42.9542
G01 X37.6989 Y42.5148
G01 Y34.1148
G01 X38.1382 Y33.6755
G01 X37.6989 Y34.1148
G01 X28.6989
G01 X28.2596 Y33.6755
G01 X28.6989 Y34.1148
G01 Z-3.5000
G01 Y42.5148
G01 X28.2596 Y42.9542
G01 X28.6989 Y42.5148
G01 X37.6989
G01 X38.1382 Y42.9542
G01 X37.6989 Y42.5148
G01 Y34.1148
G01 X38.1382 Y33.6755
G01 X37.6989 Y34.1148
G01 X28.6989
G01 X28.2596 Y33.6755
G01 X28.6989 Y34.1148
G00 Z15.0000


(Nr. 9: Ausschnitt 35)
G00 X33.4989 Y53.2148 Z15.0000
G00 Z0.5000
G01 Z-1.7600 F200
G01 Y61.6148
G01 X33.0596 Y62.0542
G01 X33.4989 Y61.6148
G01 X42.4989
G01 X42.9382 Y62.0542
G01 X42.4989 Y61.6148
G01 Y53.2148
G01 X42.9382 Y52.7755
G01 X42.4989 Y53.2148
G01 X33.4989
G01 X33.0596 Y52.7755
G01 X33.4989 Y53.2148
G01 Z-3.5000
G01 Y61.6148
G01 X33.0596 Y62.0542
G01 X33.4989 Y61.6148
G01 X42.4989
G01 X42.9382 Y62.0542
G01 X42.4989 Y61.6148
G01 Y53.2148
G01 X42.9382 Y52.7755
G01 X42.4989 Y53.2148
G01 X33.4989
G01 X33.0596 Y52.7755
G01 X33.4989 Y53.2148
G00 Z15.0000


(Nr. 10: Ausschnitt 34)
G00 X14.4989 Y53.2148 Z15.0000
G00 Z0.5000
G01 Z-1.7600 F200
G01 Y61.6148
G01 X14.0596 Y62.0542
G01 X14.4989 Y61.6148
G01 X23.4989
G01 X23.9382 Y62.0542
G01 X23.4989 Y61.6148
G01 Y53.2148
G01 X23.9382 Y52.7755
G01 X23.4989 Y53.2148
G01 X14.4989
G01 X14.0596 Y52.7755
G01 X14.4989 Y53.2148
G01 Z-3.5000
G01 Y61.6148
G01 X14.0596 Y62.0542
G01 X14.4989 Y61.6148
G01 X23.4989
G01 X23.9382 Y62.0542
G01 X23.4989 Y61.6148
G01 Y53.2148
G01 X23.9382 Y52.7755
G01 X23.4989 Y53.2148
G01 X14.4989
G01 X14.0596 Y52.7755
G01 X14.4989 Y53.2148
G00 Z15.0000


(Nr. 11: Ausschnitt 33)
G00 X-4.5011 Y43.6648 Z15.0000
G00 Z0.5000
G01 Z-1.7600 F200
G01 Y52.0648
G01 X-4.9404 Y52.5042
G01 X-4.5011 Y52.0648
G01 X4.4989
G01 X4.9382 Y52.5042
G01 X4.4989 Y52.0648
G01 Y43.6648
G01 X4.9382 Y43.2255
G01 X4.4989 Y43.6648
G01 X-4.5011
G01 X-4.9404 Y43.2255
G01 X-4.5011 Y43.6648
G01 Z-3.5000
G01 Y52.0648
G01 X-4.9404 Y52.5042
G01 X-4.5011 Y52.0648
G01 X4.4989
G01 X4.9382 Y52.5042
G01 X4.4989 Y52.0648
G01 Y43.6648
G01 X4.9382 Y43.2255
G01 X4.4989 Y43.6648
G01 X-4.5011
G01 X-4.9404 Y43.2255
G01 X-4.5011 Y43.6648
G00 Z15.0000


(Nr. 12: Ausschnitt 46)
G00 X0.2489 Y72.3148 Z15.0000
G00 Z0.5000
G01 Z-1.7600 F200
G01 Y80.7148
G01 X-0.1904 Y81.1542
G01 X0.2489 Y80.7148
G01 X9.2489
G01 X9.6882 Y81.1542
G01 X9.2489 Y80.7148
G01 Y72.3148
G01 X9.6882 Y71.8755
G01 X9.2489 Y72.3148
G01 X0.2489
G01 X-0.1904 Y71.8755
G01 X0.2489 Y72.3148
G01 Z-3.5000
G01 Y80.7148
G01 X-0.1904 Y81.1542
G01 X0.2489 Y80.7148
G01 X9.2489
G01 X9.6882 Y81.1542
G01 X9.2489 Y80.7148
G01 Y72.3148
G01 X9.6882 Y71.8755
G01 X9.2489 Y72.3148
G01 X0.2489
G01 X-0.1904 Y71.8755
G01 X0.2489 Y72.3148
G00 Z15.0000


(Nr. 13: Ausschnitt 47)
G00 X23.9989 Y72.3148 Z15.0000
G00 Z0.5000
G01 Z-1.7600 F200
G01 Y80.7148
G01 X23.5596 Y81.1542
G01 X23.9989 Y80.7148
G01 X32.9989
G01 X33.4382 Y81.1542
G01 X32.9989 Y80.7148
G01 Y72.3148
G01 X33.4382 Y71.8755
G01 X32.9989 Y72.3148
G01 X23.9989
G01 X23.5596 Y71.8755
G01 X23.9989 Y72.3148
G01 Z-3.5000
G01 Y80.7148
G01 X23.5596 Y81.1542
G01 X23.9989 Y80.7148
G01 X32.9989
G01 X33.4382 Y81.1542
G01 X32.9989 Y80.7148
G01 Y72.3148
G01 X33.4382 Y71.8755
G01 X32.9989 Y72.3148
G01 X23.9989
G01 X23.5596 Y71.8755
G01 X23.9989 Y72.3148
G00 Z15.0000


(Nr. 14: Ausschnitt 48)
G00 X42.9989 Y72.3148 Z15.0000
G00 Z0.5000
G01 Z-1.7600 F200
G01 Y80.7148
G01 X42.5596 Y81.1542
G01 X42.9989 Y80.7148
G01 X51.9989
G01 X52.4382 Y81.1542
G01 X51.9989 Y80.7148
G01 Y72.3148
G01 X52.4382 Y71.8755
G01 X51.9989 Y72.3148
G01 X42.9989
G01 X42.5596 Y71.8755
G01 X42.9989 Y72.3148
G01 Z-3.5000
G01 Y80.7148
G01 X42.5596 Y81.1542
G01 X42.9989 Y80.7148
G01 X51.9989
G01 X52.4382 Y81.1542
G01 X51.9989 Y80.7148
G01 Y72.3148
G01 X52.4382 Y71.8755
G01 X51.9989 Y72.3148
G01 X42.9989
G01 X42.5596 Y71.8755
G01 X42.9989 Y72.3148
G00 Z15.0000


(Nr. 15: Ausschnitt 49)
G00 X61.9989 Y72.3148 Z15.0000
G00 Z0.5000
G01 Z-1.7600 F200
G01 Y80.7148
G01 X61.5596 Y81.1542
G01 X61.9989 Y80.7148
G01 X70.9989
G01 X71.4382 Y81.1542
G01 X70.9989 Y80.7148
G01 Y72.3148
G01 X71.4382 Y71.8755
G01 X70.9989 Y72.3148
G01 X61.9989
G01 X61.5596 Y71.8755
G01 X61.9989 Y72.3148
G01 Z-3.5000
G01 Y80.7148
G01 X61.5596 Y81.1542
G01 X61.9989 Y80.7148
G01 X70.9989
G01 X71.4382 Y81.1542
G01 X70.9989 Y80.7148
G01 Y72.3148
G01 X71.4382 Y71.8755
G01 X70.9989 Y72.3148
G01 X61.9989
G01 X61.5596 Y71.8755
G01 X61.9989 Y72.3148
G00 Z15.0000


(Nr. 16: Ausschnitt 50)
G00 X80.9989 Y72.3148 Z15.0000
G00 Z0.5000
G01 Z-1.7600 F200
G01 Y80.7148
G01 X80.5596 Y81.1542
G01 X80.9989 Y80.7148
G01 X89.9989
G01 X90.4382 Y81.1542
G01 X89.9989 Y80.7148
G01 Y72.3148
G01 X90.4382 Y71.8755
G01 X89.9989 Y72.3148
G01 X80.9989
G01 X80.5596 Y71.8755
G01 X80.9989 Y72.3148
G01 Z-3.5000
G01 Y80.7148
G01 X80.5596 Y81.1542
G01 X80.9989 Y80.7148
G01 X89.9989
G01 X90.4382 Y81.1542
G01 X89.9989 Y80.7148
G01 Y72.3148
G01 X90.4382 Y71.8755
G01 X89.9989 Y72.3148
G01 X80.9989
G01 X80.5596 Y71.8755
G01 X80.9989 Y72.3148
G00 Z15.0000


(Nr. 17: Ausschnitt 51)
G00 X99.9989 Y72.3148 Z15.0000
G00 Z0.5000
G01 Z-1.7600 F200
G01 Y80.7148
G01 X99.5596 Y81.1542
G01 X99.9989 Y80.7148
G01 X108.9989
G01 X109.4382 Y81.1542
G01 X108.9989 Y80.7148
G01 Y72.3148
G01 X109.4382 Y71.8755
G01 X108.9989 Y72.3148
G01 X99.9989
G01 X99.5596 Y71.8755
G01 X99.9989 Y72.3148
G01 Z-3.5000
G01 Y80.7148
G01 X99.5596 Y81.1542
G01 X99.9989 Y80.7148
G01 X108.9989
G01 X109.4382 Y81.1542
G01 X108.9989 Y80.7148
G01 Y72.3148
G01 X109.4382 Y71.8755
G01 X108.9989 Y72.3148
G01 X99.9989
G01 X99.5596 Y71.8755
G01 X99.9989 Y72.3148
G00 Z15.0000


(Nr. 18: Ausschnitt 52)
G00 X118.9989 Y72.3148 Z15.0000
G00 Z0.5000
G01 Z-1.7600 F200
G01 Y80.7148
G01 X118.5596 Y81.1542
G01 X118.9989 Y80.7148
G01 X127.9989
G01 X128.4382 Y81.1542
G01 X127.9989 Y80.7148
G01 Y72.3148
G01 X128.4382 Y71.8755
G01 X127.9989 Y72.3148
G01 X118.9989
G01 X118.5596 Y71.8755
G01 X118.9989 Y72.3148
G01 Z-3.5000
G01 Y80.7148
G01 X118.5596 Y81.1542
G01 X118.9989 Y80.7148
G01 X127.9989
G01 X128.4382 Y81.1542
G01 X127.9989 Y80.7148
G01 Y72.3148
G01 X128.4382 Y71.8755
G01 X127.9989 Y72.3148
G01 X118.9989
G01 X118.5596 Y71.8755
G01 X118.9989 Y72.3148
G00 Z15.0000


(Nr. 19: Ausschnitt 53)
G00 X137.9989 Y72.3148 Z15.0000
G00 Z0.5000
G01 Z-1.7600 F200
G01 Y80.7148
G01 X137.5596 Y81.1542
G01 X137.9989 Y80.7148
G01 X146.9989
G01 X147.4382 Y81.1542
G01 X146.9989 Y80.7148
G01 Y72.3148
G01 X147.4382 Y71.8755
G01 X146.9989 Y72.3148
G01 X137.9989
G01 X137.5596 Y71.8755
G01 X137.9989 Y72.3148
G01 Z-3.5000
G01 Y80.7148
G01 X137.5596 Y81.1542
G01 X137.9989 Y80.7148
G01 X146.9989
G01 X147.4382 Y81.1542
G01 X146.9989 Y80.7148
G01 Y72.3148
G01 X147.4382 Y71.8755
G01 X146.9989 Y72.3148
G01 X137.9989
G01 X137.5596 Y71.8755
G01 X137.9989 Y72.3148
G00 Z15.0000


(Nr. 20: Ausschnitt 54)
G00 X156.9989 Y72.3148 Z15.0000
G00 Z0.5000
G01 Z-1.7600 F200
G01 Y80.7148
G01 X156.5596 Y81.1542
G01 X156.9989 Y80.7148
G01 X165.9989
G01 X166.4382 Y81.1542
G01 X165.9989 Y80.7148
G01 Y72.3148
G01 X166.4382 Y71.8755
G01 X165.9989 Y72.3148
G01 X156.9989
G01 X156.5596 Y71.8755
G01 X156.9989 Y72.3148
G01 Z-3.5000
G01 Y80.7148
G01 X156.5596 Y81.1542
G01 X156.9989 Y80.7148
G01 X165.9989
G01 X166.4382 Y81.1542
G01 X165.9989 Y80.7148
G01 Y72.3148
G01 X166.4382 Y71.8755
G01 X165.9989 Y72.3148
G01 X156.9989
G01 X156.5596 Y71.8755
G01 X156.9989 Y72.3148
G00 Z15.0000


(Nr. 21: Ausschnitt 55)
G00 X175.9989 Y72.3148 Z15.0000
G00 Z0.5000
G01 Z-1.7600 F200
G01 Y80.7148
G01 X175.5596 Y81.1542
G01 X175.9989 Y80.7148
G01 X184.9989
G01 X185.4382 Y81.1542
G01 X184.9989 Y80.7148
G01 Y72.3148
G01 X185.4382 Y71.8755
G01 X184.9989 Y72.3148
G01 X175.9989
G01 X175.5596 Y71.8755
G01 X175.9989 Y72.3148
G01 Z-3.5000
G01 Y80.7148
G01 X175.5596 Y81.1542
G01 X175.9989 Y80.7148
G01 X184.9989
G01 X185.4382 Y81.1542
G01 X184.9989 Y80.7148
G01 Y72.3148
G01 X185.4382 Y71.8755
G01 X184.9989 Y72.3148
G01 X175.9989
G01 X175.5596 Y71.8755
G01 X175.9989 Y72.3148
G00 Z15.0000


(Nr. 22: Ausschnitt 56)
G00 X194.9789 Y72.3148 Z15.0000
G00 Z0.5000
G01 Z-1.7600 F200
G01 Y80.7148
G01 X194.5396 Y81.1542
G01 X194.9789 Y80.7148
G01 X203.9789
G01 X204.4182 Y81.1542
G01 X203.9789 Y80.7148
G01 Y72.3148
G01 X204.4182 Y71.8755
G01 X203.9789 Y72.3148
G01 X194.9789
G01 X194.5396 Y71.8755
G01 X194.9789 Y72.3148
G01 Z-3.5000
G01 Y80.7148
G01 X194.5396 Y81.1542
G01 X194.9789 Y80.7148
G01 X203.9789
G01 X204.4182 Y81.1542
G01 X203.9789 Y80.7148
G01 Y72.3148
G01 X204.4182 Y71.8755
G01 X203.9789 Y72.3148
G01 X194.9789
G01 X194.5396 Y71.8755
G01 X194.9789 Y72.3148
G00 Z15.0000


(Nr. 23: Ausschnitt 57)
G00 X213.9989 Y72.3148 Z15.0000
G00 Z0.5000
G01 Z-1.7600 F200
G01 Y80.7148
G01 X213.5596 Y81.1542
G01 X213.9989 Y80.7148
G01 X222.9989
G01 X223.4382 Y81.1542
G01 X222.9989 Y80.7148
G01 Y72.3148
G01 X223.4382 Y71.8755
G01 X222.9989 Y72.3148
G01 X213.9989
G01 X213.5596 Y71.8755
G01 X213.9989 Y72.3148
G01 Z-3.5000
G01 Y80.7148
G01 X213.5596 Y81.1542
G01 X213.9989 Y80.7148
G01 X222.9989
G01 X223.4382 Y81.1542
G01 X222.9989 Y80.7148
G01 Y72.3148
G01 X223.4382 Y71.8755
G01 X222.9989 Y72.3148
G01 X213.9989
G01 X213.5596 Y71.8755
G01 X213.9989 Y72.3148
G00 Z15.0000


(Nr. 24: Ausschnitt 58)
G00 X232.9989 Y72.3148 Z15.0000
G00 Z0.5000
G01 Z-1.7600 F200
G01 Y80.7148
G01 X232.5596 Y81.1542
G01 X232.9989 Y80.7148
G01 X241.9989
G01 X242.4382 Y81.1542
G01 X241.9989 Y80.7148
G01 Y72.3148
G01 X242.4382 Y71.8755
G01 X241.9989 Y72.3148
G01 X232.9989
G01 X232.5596 Y71.8755
G01 X232.9989 Y72.3148
G01 Z-3.5000
G01 Y80.7148
G01 X232.5596 Y81.1542
G01 X232.9989 Y80.7148
G01 X241.9989
G01 X242.4382 Y81.1542
G01 X241.9989 Y80.7148
G01 Y72.3148
G01 X242.4382 Y71.8755
G01 X241.9989 Y72.3148
G01 X232.9989
G01 X232.5596 Y71.8755
G01 X232.9989 Y72.3148
G00 Z15.0000


(Nr. 25: Ausschnitt 45)
G00 X228.2489 Y53.2148 Z15.0000
G00 Z0.5000
G01 Z-1.7600 F200
G01 Y61.6148
G01 X227.8096 Y62.0542
G01 X228.2489 Y61.6148
G01 X237.2489
G01 X237.6882 Y62.0542
G01 X237.2489 Y61.6148
G01 Y53.2148
G01 X237.6882 Y52.7755
G01 X237.2489 Y53.2148
G01 X228.2489
G01 X227.8096 Y52.7755
G01 X228.2489 Y53.2148
G01 Z-3.5000
G01 Y61.6148
G01 X227.8096 Y62.0542
G01 X228.2489 Y61.6148
G01 X237.2489
G01 X237.6882 Y62.0542
G01 X237.2489 Y61.6148
G01 Y53.2148
G01 X237.6882 Y52.7755
G01 X237.2489 Y53.2148
G01 X228.2489
G01 X227.8096 Y52.7755
G01 X228.2489 Y53.2148
G00 Z15.0000


(Nr. 26: Ausschnitt 32)
G00 X228.2489 Y34.1148 Z15.0000
G00 Z0.5000
G01 Z-1.7600 F200
G01 Y42.5148
G01 X227.8096 Y42.9542
G01 X228.2489 Y42.5148
G01 X237.2489
G01 X237.6882 Y42.9542
G01 X237.2489 Y42.5148
G01 Y34.1148
G01 X237.6882 Y33.6755
G01 X237.2489 Y34.1148
G01 X228.2489
G01 X227.8096 Y33.6755
G01 X228.2489 Y34.1148
G01 Z-3.5000
G01 Y42.5148
G01 X227.8096 Y42.9542
G01 X228.2489 Y42.5148
G01 X237.2489
G01 X237.6882 Y42.9542
G01 X237.2489 Y42.5148
G01 Y34.1148
G01 X237.6882 Y33.6755
G01 X237.2489 Y34.1148
G01 X228.2489
G01 X227.8096 Y33.6755
G01 X228.2489 Y34.1148
G00 Z15.0000


(Nr. 27: Ausschnitt 21)
G00 X221.0489 Y15.0148 Z15.0000
G00 Z0.5000
G01 Z-1.7600 F200
G01 Y23.4148
G01 X220.6096 Y23.8542
G01 X221.0489 Y23.4148
G01 X230.0489
G01 X230.4882 Y23.8542
G01 X230.0489 Y23.4148
G01 Y15.0148
G01 X230.4882 Y14.5755
G01 X230.0489 Y15.0148
G01 X221.0489
G01 X220.6096 Y14.5755
G01 X221.0489 Y15.0148
G01 Z-3.5000
G01 Y23.4148
G01 X220.6096 Y23.8542
G01 X221.0489 Y23.4148
G01 X230.0489
G01 X230.4882 Y23.8542
G01 X230.0489 Y23.4148
G01 Y15.0148
G01 X230.4882 Y14.5755
G01 X230.0489 Y15.0148
G01 X221.0489
G01 X220.6096 Y14.5755
G01 X221.0489 Y15.0148
G00 Z15.0000


(Nr. 28: Ausschnitt 9)
G00 X213.9989 Y-4.0852 Z15.0000
G00 Z0.5000
G01 Z-1.7600 F200
G01 Y4.3148
G01 X213.5596 Y4.7542
G01 X213.9989 Y4.3148
G01 X222.9989
G01 X223.4382 Y4.7542
G01 X222.9989 Y4.3148
G01 Y-4.0852
G01 X223.4382 Y-4.5245
G01 X222.9989 Y-4.0852
G01 X213.9989
G01 X213.5596 Y-4.5245
G01 X213.9989 Y-4.0852
G01 Z-3.5000
G01 Y4.3148
G01 X213.5596 Y4.7542
G01 X213.9989 Y4.3148
G01 X222.9989
G01 X223.4382 Y4.7542
G01 X222.9989 Y4.3148
G01 Y-4.0852
G01 X223.4382 Y-4.5245
G01 X222.9989 Y-4.0852
G01 X213.9989
G01 X213.5596 Y-4.5245
G01 X213.9989 Y-4.0852
G00 Z15.0000


(Nr. 29: Ausschnitt 8)
G00 X194.9989 Y-4.0852 Z15.0000
G00 Z0.5000
G01 Z-1.7600 F200
G01 Y4.3148
G01 X194.5596 Y4.7542
G01 X194.9989 Y4.3148
G01 X203.9989
G01 X204.4382 Y4.7542
G01 X203.9989 Y4.3148
G01 Y-4.0852
G01 X204.4382 Y-4.5245
G01 X203.9989 Y-4.0852
G01 X194.9989
G01 X194.5596 Y-4.5245
G01 X194.9989 Y-4.0852
G01 Z-3.5000
G01 Y4.3148
G01 X194.5596 Y4.7542
G01 X194.9989 Y4.3148
G01 X203.9989
G01 X204.4382 Y4.7542
G01 X203.9989 Y4.3148
G01 Y-4.0852
G01 X204.4382 Y-4.5245
G01 X203.9989 Y-4.0852
G01 X194.9989
G01 X194.5596 Y-4.5245
G01 X194.9989 Y-4.0852
G00 Z15.0000


(Nr. 30: Ausschnitt 7)
G00 X175.9989 Y-4.0852 Z15.0000
G00 Z0.5000
G01 Z-1.7600 F200
G01 Y4.3148
G01 X175.5596 Y4.7542
G01 X175.9989 Y4.3148
G01 X184.9989
G01 X185.4382 Y4.7542
G01 X184.9989 Y4.3148
G01 Y-4.0852
G01 X185.4382 Y-4.5245
G01 X184.9989 Y-4.0852
G01 X175.9989
G01 X175.5596 Y-4.5245
G01 X175.9989 Y-4.0852
G01 Z-3.5000
G01 Y4.3148
G01 X175.5596 Y4.7542
G01 X175.9989 Y4.3148
G01 X184.9989
G01 X185.4382 Y4.7542
G01 X184.9989 Y4.3148
G01 Y-4.0852
G01 X185.4382 Y-4.5245
G01 X184.9989 Y-4.0852
G01 X175.9989
G01 X175.5596 Y-4.5245
G01 X175.9989 Y-4.0852
G00 Z15.0000


(Nr. 31: Ausschnitt 6)
G00 X156.9989 Y-4.0852 Z15.0000
G00 Z0.5000
G01 Z-1.7600 F200
G01 Y4.3148
G01 X156.5596 Y4.7542
G01 X156.9989 Y4.3148
G01 X165.9989
G01 X166.4382 Y4.7542
G01 X165.9989 Y4.3148
G01 Y-4.0852
G01 X166.4382 Y-4.5245
G01 X165.9989 Y-4.0852
G01 X156.9989
G01 X156.5596 Y-4.5245
G01 X156.9989 Y-4.0852
G01 Z-3.5000
G01 Y4.3148
G01 X156.5596 Y4.7542
G01 X156.9989 Y4.3148
G01 X165.9989
G01 X166.4382 Y4.7542
G01 X165.9989 Y4.3148
G01 Y-4.0852
G01 X166.4382 Y-4.5245
G01 X165.9989 Y-4.0852
G01 X156.9989
G01 X156.5596 Y-4.5245
G01 X156.9989 Y-4.0852
G00 Z15.0000


(Nr. 32: Ausschnitt 18)
G00 X152.2989 Y15.0148 Z15.0000
G00 Z0.5000
G01 Z-1.7600 F200
G01 Y23.4148
G01 X151.8596 Y23.8542
G01 X152.2989 Y23.4148
G01 X161.2989
G01 X161.7382 Y23.8542
G01 X161.2989 Y23.4148
G01 Y15.0148
G01 X161.7382 Y14.5755
G01 X161.2989 Y15.0148
G01 X152.2989
G01 X151.8596 Y14.5755
G01 X152.2989 Y15.0148
G01 Z-3.5000
G01 Y23.4148
G01 X151.8596 Y23.8542
G01 X152.2989 Y23.4148
G01 X161.2989
G01 X161.7382 Y23.8542
G01 X161.2989 Y23.4148
G01 Y15.0148
G01 X161.7382 Y14.5755
G01 X161.2989 Y15.0148
G01 X152.2989
G01 X151.8596 Y14.5755
G01 X152.2989 Y15.0148
G00 Z15.0000


(Nr. 33: Ausschnitt 17)
G00 X133.2989 Y15.0148 Z15.0000
G00 Z0.5000
G01 Z-1.7600 F200
G01 Y23.4148
G01 X132.8596 Y23.8542
G01 X133.2989 Y23.4148
G01 X142.2989
G01 X142.7382 Y23.8542
G01 X142.2989 Y23.4148
G01 Y15.0148
G01 X142.7382 Y14.5755
G01 X142.2989 Y15.0148
G01 X133.2989
G01 X132.8596 Y14.5755
G01 X133.2989 Y15.0148
G01 Z-3.5000
G01 Y23.4148
G01 X132.8596 Y23.8542
G01 X133.2989 Y23.4148
G01 X142.2989
G01 X142.7382 Y23.8542
G01 X142.2989 Y23.4148
G01 Y15.0148
G01 X142.7382 Y14.5755
G01 X142.2989 Y15.0148
G01 X133.2989
G01 X132.8596 Y14.5755
G01 X133.2989 Y15.0148
G00 Z15.0000


(Nr. 34: Ausschnitt 16)
G00 X114.2989 Y15.0148 Z15.0000
G00 Z0.5000
G01 Z-1.7600 F200
G01 Y23.4148
G01 X113.8596 Y23.8542
G01 X114.2989 Y23.4148
G01 X123.2989
G01 X123.7382 Y23.8542
G01 X123.2989 Y23.4148
G01 Y15.0148
G01 X123.7382 Y14.5755
G01 X123.2989 Y15.0148
G01 X114.2989
G01 X113.8596 Y14.5755
G01 X114.2989 Y15.0148
G01 Z-3.5000
G01 Y23.4148
G01 X113.8596 Y23.8542
G01 X114.2989 Y23.4148
G01 X123.2989
G01 X123.7382 Y23.8542
G01 X123.2989 Y23.4148
G01 Y15.0148
G01 X123.7382 Y14.5755
G01 X123.2989 Y15.0148
G01 X114.2989
G01 X113.8596 Y14.5755
G01 X114.2989 Y15.0148
G00 Z15.0000


(Nr. 35: Ausschnitt 15)
G00 X95.2989 Y15.0148 Z15.0000
G00 Z0.5000
G01 Z-1.7600 F200
G01 Y23.4148
G01 X94.8596 Y23.8542
G01 X95.2989 Y23.4148
G01 X104.2989
G01 X104.7382 Y23.8542
G01 X104.2989 Y23.4148
G01 Y15.0148
G01 X104.7382 Y14.5755
G01 X104.2989 Y15.0148
G01 X95.2989
G01 X94.8596 Y14.5755
G01 X95.2989 Y15.0148
G01 Z-3.5000
G01 Y23.4148
G01 X94.8596 Y23.8542
G01 X95.2989 Y23.4148
G01 X104.2989
G01 X104.7382 Y23.8542
G01 X104.2989 Y23.4148
G01 Y15.0148
G01 X104.7382 Y14.5755
G01 X104.2989 Y15.0148
G01 X95.2989
G01 X94.8596 Y14.5755
G01 X95.2989 Y15.0148
G00 Z15.0000


(Nr. 36: Ausschnitt 14)
G00 X76.2989 Y15.0148 Z15.0000
G00 Z0.5000
G01 Z-1.7600 F200
G01 Y23.4148
G01 X75.8596 Y23.8542
G01 X76.2989 Y23.4148
G01 X85.2989
G01 X85.7382 Y23.8542
G01 X85.2989 Y23.4148
G01 Y15.0148
G01 X85.7382 Y14.5755
G01 X85.2989 Y15.0148
G01 X76.2989
G01 X75.8596 Y14.5755
G01 X76.2989 Y15.0148
G01 Z-3.5000
G01 Y23.4148
G01 X75.8596 Y23.8542
G01 X76.2989 Y23.4148
G01 X85.2989
G01 X85.7382 Y23.8542
G01 X85.2989 Y23.4148
G01 Y15.0148
G01 X85.7382 Y14.5755
G01 X85.2989 Y15.0148
G01 X76.2989
G01 X75.8596 Y14.5755
G01 X76.2989 Y15.0148
G00 Z15.0000


(Nr. 37: Ausschnitt 25)
G00 X85.6989 Y34.1148 Z15.0000
G00 Z0.5000
G01 Z-1.7600 F200
G01 Y42.5148
G01 X85.2596 Y42.9542
G01 X85.6989 Y42.5148
G01 X94.6989
G01 X95.1382 Y42.9542
G01 X94.6989 Y42.5148
G01 Y34.1148
G01 X95.1382 Y33.6755
G01 X94.6989 Y34.1148
G01 X85.6989
G01 X85.2596 Y33.6755
G01 X85.6989 Y34.1148
G01 Z-3.5000
G01 Y42.5148
G01 X85.2596 Y42.9542
G01 X85.6989 Y42.5148
G01 X94.6989
G01 X95.1382 Y42.9542
G01 X94.6989 Y42.5148
G01 Y34.1148
G01 X95.1382 Y33.6755
G01 X94.6989 Y34.1148
G01 X85.6989
G01 X85.2596 Y33.6755
G01 X85.6989 Y34.1148
G00 Z15.0000


(Nr. 38: Ausschnitt 24)
G00 X66.6989 Y34.1148 Z15.0000
G00 Z0.5000
G01 Z-1.7600 F200
G01 Y42.5148
G01 X66.2596 Y42.9542
G01 X66.6989 Y42.5148
G01 X75.6989
G01 X76.1382 Y42.9542
G01 X75.6989 Y42.5148
G01 Y34.1148
G01 X76.1382 Y33.6755
G01 X75.6989 Y34.1148
G01 X66.6989
G01 X66.2596 Y33.6755
G01 X66.6989 Y34.1148
G01 Z-3.5000
G01 Y42.5148
G01 X66.2596 Y42.9542
G01 X66.6989 Y42.5148
G01 X75.6989
G01 X76.1382 Y42.9542
G01 X75.6989 Y42.5148
G01 Y34.1148
G01 X76.1382 Y33.6755
G01 X75.6989 Y34.1148
G01 X66.6989
G01 X66.2596 Y33.6755
G01 X66.6989 Y34.1148
G00 Z15.0000


(Nr. 39: Ausschnitt 37)
G00 X71.4989 Y53.2148 Z15.0000
G00 Z0.5000
G01 Z-1.7600 F200
G01 Y61.6148
G01 X71.0596 Y62.0542
G01 X71.4989 Y61.6148
G01 X80.4989
G01 X80.9382 Y62.0542
G01 X80.4989 Y61.6148
G01 Y53.2148
G01 X80.9382 Y52.7755
G01 X80.4989 Y53.2148
G01 X71.4989
G01 X71.0596 Y52.7755
G01 X71.4989 Y53.2148
G01 Z-3.5000
G01 Y61.6148
G01 X71.0596 Y62.0542
G01 X71.4989 Y61.6148
G01 X80.4989
G01 X80.9382 Y62.0542
G01 X80.4989 Y61.6148
G01 Y53.2148
G01 X80.9382 Y52.7755
G01 X80.4989 Y53.2148
G01 X71.4989
G01 X71.0596 Y52.7755
G01 X71.4989 Y53.2148
G00 Z15.0000


(Nr. 40: Ausschnitt 36)
G00 X52.4989 Y53.2148 Z15.0000
G00 Z0.5000
G01 Z-1.7600 F200
G01 Y61.6148
G01 X52.0596 Y62.0542
G01 X52.4989 Y61.6148
G01 X61.4989
G01 X61.9382 Y62.0542
G01 X61.4989 Y61.6148
G01 Y53.2148
G01 X61.9382 Y52.7755
G01 X61.4989 Y53.2148
G01 X52.4989
G01 X52.0596 Y52.7755
G01 X52.4989 Y53.2148
G01 Z-3.5000
G01 Y61.6148
G01 X52.0596 Y62.0542
G01 X52.4989 Y61.6148
G01 X61.4989
G01 X61.9382 Y62.0542
G01 X61.4989 Y61.6148
G01 Y53.2148
G01 X61.9382 Y52.7755
G01 X61.4989 Y53.2148
G01 X52.4989
G01 X52.0596 Y52.7755
G01 X52.4989 Y53.2148
G00 Z15.0000


(Nr. 41: Ausschnitt 38)
G00 X90.4989 Y53.2148 Z15.0000
G00 Z0.5000
G01 Z-1.7600 F200
G01 Y61.6148
G01 X90.0596 Y62.0542
G01 X90.4989 Y61.6148
G01 X99.4989
G01 X99.9382 Y62.0542
G01 X99.4989 Y61.6148
G01 Y53.2148
G01 X99.9382 Y52.7755
G01 X99.4989 Y53.2148
G01 X90.4989
G01 X90.0596 Y52.7755
G01 X90.4989 Y53.2148
G01 Z-3.5000
G01 Y61.6148
G01 X90.0596 Y62.0542
G01 X90.4989 Y61.6148
G01 X99.4989
G01 X99.9382 Y62.0542
G01 X99.4989 Y61.6148
G01 Y53.2148
G01 X99.9382 Y52.7755
G01 X99.4989 Y53.2148
G01 X90.4989
G01 X90.0596 Y52.7755
G01 X90.4989 Y53.2148
G00 Z15.0000


(Nr. 42: Ausschnitt 39)
G00 X109.4989 Y53.2148 Z15.0000
G00 Z0.5000
G01 Z-1.7600 F200
G01 Y61.6148
G01 X109.0596 Y62.0542
G01 X109.4989 Y61.6148
G01 X118.4989
G01 X118.9382 Y62.0542
G01 X118.4989 Y61.6148
G01 Y53.2148
G01 X118.9382 Y52.7755
G01 X118.4989 Y53.2148
G01 X109.4989
G01 X109.0596 Y52.7755
G01 X109.4989 Y53.2148
G01 Z-3.5000
G01 Y61.6148
G01 X109.0596 Y62.0542
G01 X109.4989 Y61.6148
G01 X118.4989
G01 X118.9382 Y62.0542
G01 X118.4989 Y61.6148
G01 Y53.2148
G01 X118.9382 Y52.7755
G01 X118.4989 Y53.2148
G01 X109.4989
G01 X109.0596 Y52.7755
G01 X109.4989 Y53.2148
G00 Z15.0000


(Nr. 43: Ausschnitt 40)
G00 X128.4989 Y53.2148 Z15.0000
G00 Z0.5000
G01 Z-1.7600 F200
G01 Y61.6148
G01 X128.0596 Y62.0542
G01 X128.4989 Y61.6148
G01 X137.4989
G01 X137.9382 Y62.0542
G01 X137.4989 Y61.6148
G01 Y53.2148
G01 X137.9382 Y52.7755
G01 X137.4989 Y53.2148
G01 X128.4989
G01 X128.0596 Y52.7755
G01 X128.4989 Y53.2148
G01 Z-3.5000
G01 Y61.6148
G01 X128.0596 Y62.0542
G01 X128.4989 Y61.6148
G01 X137.4989
G01 X137.9382 Y62.0542
G01 X137.4989 Y61.6148
G01 Y53.2148
G01 X137.9382 Y52.7755
G01 X137.4989 Y53.2148
G01 X128.4989
G01 X128.0596 Y52.7755
G01 X128.4989 Y53.2148
G00 Z15.0000


(Nr. 44: Ausschnitt 41)
G00 X147.4989 Y53.2148 Z15.0000
G00 Z0.5000
G01 Z-1.7600 F200
G01 Y61.6148
G01 X147.0596 Y62.0542
G01 X147.4989 Y61.6148
G01 X156.4989
G01 X156.9382 Y62.0542
G01 X156.4989 Y61.6148
G01 Y53.2148
G01 X156.9382 Y52.7755
G01 X156.4989 Y53.2148
G01 X147.4989
G01 X147.0596 Y52.7755
G01 X147.4989 Y53.2148
G01 Z-3.5000
G01 Y61.6148
G01 X147.0596 Y62.0542
G01 X147.4989 Y61.6148
G01 X156.4989
G01 X156.9382 Y62.0542
G01 X156.4989 Y61.6148
G01 Y53.2148
G01 X156.9382 Y52.7755
G01 X156.4989 Y53.2148
G01 X147.4989
G01 X147.0596 Y52.7755
G01 X147.4989 Y53.2148
G00 Z15.0000


(Nr. 45: Ausschnitt 42)
G00 X166.4989 Y53.2148 Z15.0000
G00 Z0.5000
G01 Z-1.7600 F200
G01 Y61.6148
G01 X166.0596 Y62.0542
G01 X166.4989 Y61.6148
G01 X175.4989
G01 X175.9382 Y62.0542
G01 X175.4989 Y61.6148
G01 Y53.2148
G01 X175.9382 Y52.7755
G01 X175.4989 Y53.2148
G01 X166.4989
G01 X166.0596 Y52.7755
G01 X166.4989 Y53.2148
G01 Z-3.5000
G01 Y61.6148
G01 X166.0596 Y62.0542
G01 X166.4989 Y61.6148
G01 X175.4989
G01 X175.9382 Y62.0542
G01 X175.4989 Y61.6148
G01 Y53.2148
G01 X175.9382 Y52.7755
G01 X175.4989 Y53.2148
G01 X166.4989
G01 X166.0596 Y52.7755
G01 X166.4989 Y53.2148
G00 Z15.0000


(Nr. 46: Ausschnitt 43)
G00 X185.4989 Y53.2148 Z15.0000
G00 Z0.5000
G01 Z-1.7600 F200
G01 Y61.6148
G01 X185.0596 Y62.0542
G01 X185.4989 Y61.6148
G01 X194.4989
G01 X194.9382 Y62.0542
G01 X194.4989 Y61.6148
G01 Y53.2148
G01 X194.9382 Y52.7755
G01 X194.4989 Y53.2148
G01 X185.4989
G01 X185.0596 Y52.7755
G01 X185.4989 Y53.2148
G01 Z-3.5000
G01 Y61.6148
G01 X185.0596 Y62.0542
G01 X185.4989 Y61.6148
G01 X194.4989
G01 X194.9382 Y62.0542
G01 X194.4989 Y61.6148
G01 Y53.2148
G01 X194.9382 Y52.7755
G01 X194.4989 Y53.2148
G01 X185.4989
G01 X185.0596 Y52.7755
G01 X185.4989 Y53.2148
G00 Z15.0000


(Nr. 47: Ausschnitt 44)
G00 X204.4989 Y53.2148 Z15.0000
G00 Z0.5000
G01 Z-1.7600 F200
G01 Y61.6148
G01 X204.0596 Y62.0542
G01 X204.4989 Y61.6148
G01 X213.4989
G01 X213.9382 Y62.0542
G01 X213.4989 Y61.6148
G01 Y53.2148
G01 X213.9382 Y52.7755
G01 X213.4989 Y53.2148
G01 X204.4989
G01 X204.0596 Y52.7755
G01 X204.4989 Y53.2148
G01 Z-3.5000
G01 Y61.6148
G01 X204.0596 Y62.0542
G01 X204.4989 Y61.6148
G01 X213.4989
G01 X213.9382 Y62.0542
G01 X213.4989 Y61.6148
G01 Y53.2148
G01 X213.9382 Y52.7755
G01 X213.4989 Y53.2148
G01 X204.4989
G01 X204.0596 Y52.7755
G01 X204.4989 Y53.2148
G00 Z15.0000


(Nr. 48: Ausschnitt 31)
G00 X202.0989 Y34.1148 Z15.0000
G00 Z0.5000
G01 Z-1.7600 F200
G01 Y42.5148
G01 X201.6596 Y42.9542
G01 X202.0989 Y42.5148
G01 X211.0989
G01 X211.5382 Y42.9542
G01 X211.0989 Y42.5148
G01 Y34.1148
G01 X211.5382 Y33.6755
G01 X211.0989 Y34.1148
G01 X202.0989
G01 X201.6596 Y33.6755
G01 X202.0989 Y34.1148
G01 Z-3.5000
G01 Y42.5148
G01 X201.6596 Y42.9542
G01 X202.0989 Y42.5148
G01 X211.0989
G01 X211.5382 Y42.9542
G01 X211.0989 Y42.5148
G01 Y34.1148
G01 X211.5382 Y33.6755
G01 X211.0989 Y34.1148
G01 X202.0989
G01 X201.6596 Y33.6755
G01 X202.0989 Y34.1148
G00 Z15.0000


(Nr. 49: Ausschnitt 30)
G00 X180.6989 Y34.1148 Z15.0000
G00 Z0.5000
G01 Z-1.7600 F200
G01 Y42.5148
G01 X180.2596 Y42.9542
G01 X180.6989 Y42.5148
G01 X189.6989
G01 X190.1382 Y42.9542
G01 X189.6989 Y42.5148
G01 Y34.1148
G01 X190.1382 Y33.6755
G01 X189.6989 Y34.1148
G01 X180.6989
G01 X180.2596 Y33.6755
G01 X180.6989 Y34.1148
G01 Z-3.5000
G01 Y42.5148
G01 X180.2596 Y42.9542
G01 X180.6989 Y42.5148
G01 X189.6989
G01 X190.1382 Y42.9542
G01 X189.6989 Y42.5148
G01 Y34.1148
G01 X190.1382 Y33.6755
G01 X189.6989 Y34.1148
G01 X180.6989
G01 X180.2596 Y33.6755
G01 X180.6989 Y34.1148
G00 Z15.0000


(Nr. 50: Ausschnitt 29)
G00 X161.6989 Y34.1148 Z15.0000
G00 Z0.5000
G01 Z-1.7600 F200
G01 Y42.5148
G01 X161.2596 Y42.9542
G01 X161.6989 Y42.5148
G01 X170.6989
G01 X171.1382 Y42.9542
G01 X170.6989 Y42.5148
G01 Y34.1148
G01 X171.1382 Y33.6755
G01 X170.6989 Y34.1148
G01 X161.6989
G01 X161.2596 Y33.6755
G01 X161.6989 Y34.1148
G01 Z-3.5000
G01 Y42.5148
G01 X161.2596 Y42.9542
G01 X161.6989 Y42.5148
G01 X170.6989
G01 X171.1382 Y42.9542
G01 X170.6989 Y42.5148
G01 Y34.1148
G01 X171.1382 Y33.6755
G01 X170.6989 Y34.1148
G01 X161.6989
G01 X161.2596 Y33.6755
G01 X161.6989 Y34.1148
G00 Z15.0000


(Nr. 51: Ausschnitt 28)
G00 X142.6989 Y34.1148 Z15.0000
G00 Z0.5000
G01 Z-1.7600 F200
G01 Y42.5148
G01 X142.2596 Y42.9542
G01 X142.6989 Y42.5148
G01 X151.6989
G01 X152.1382 Y42.9542
G01 X151.6989 Y42.5148
G01 Y34.1148
G01 X152.1382 Y33.6755
G01 X151.6989 Y34.1148
G01 X142.6989
G01 X142.2596 Y33.6755
G01 X142.6989 Y34.1148
G01 Z-3.5000
G01 Y42.5148
G01 X142.2596 Y42.9542
G01 X142.6989 Y42.5148
G01 X151.6989
G01 X152.1382 Y42.9542
G01 X151.6989 Y42.5148
G01 Y34.1148
G01 X152.1382 Y33.6755
G01 X151.6989 Y34.1148
G01 X142.6989
G01 X142.2596 Y33.6755
G01 X142.6989 Y34.1148
G00 Z15.0000


(Nr. 52: Ausschnitt 27)
G00 X123.6989 Y34.1148 Z15.0000
G00 Z0.5000
G01 Z-1.7600 F200
G01 Y42.5148
G01 X123.2596 Y42.9542
G01 X123.6989 Y42.5148
G01 X132.6989
G01 X133.1382 Y42.9542
G01 X132.6989 Y42.5148
G01 Y34.1148
G01 X133.1382 Y33.6755
G01 X132.6989 Y34.1148
G01 X123.6989
G01 X123.2596 Y33.6755
G01 X123.6989 Y34.1148
G01 Z-3.5000
G01 Y42.5148
G01 X123.2596 Y42.9542
G01 X123.6989 Y42.5148
G01 X132.6989
G01 X133.1382 Y42.9542
G01 X132.6989 Y42.5148
G01 Y34.1148
G01 X133.1382 Y33.6755
G01 X132.6989 Y34.1148
G01 X123.6989
G01 X123.2596 Y33.6755
G01 X123.6989 Y34.1148
G00 Z15.0000


(Nr. 53: Ausschnitt 26)
G00 X104.6989 Y34.1148 Z15.0000
G00 Z0.5000
G01 Z-1.7600 F200
G01 Y42.5148
G01 X104.2596 Y42.9542
G01 X104.6989 Y42.5148
G01 X113.6989
G01 X114.1382 Y42.9542
G01 X113.6989 Y42.5148
G01 Y34.1148
G01 X114.1382 Y33.6755
G01 X113.6989 Y34.1148
G01 X104.6989
G01 X104.2596 Y33.6755
G01 X104.6989 Y34.1148
G01 Z-3.5000
G01 Y42.5148
G01 X104.2596 Y42.9542
G01 X104.6989 Y42.5148
G01 X113.6989
G01 X114.1382 Y42.9542
G01 X113.6989 Y42.5148
G01 Y34.1148
G01 X114.1382 Y33.6755
G01 X113.6989 Y34.1148
G01 X104.6989
G01 X104.2596 Y33.6755
G01 X104.6989 Y34.1148
G00 Z15.0000


(Nr. 54: Ausschnitt 5)
G00 X104.7489 Y-4.0852 Z15.0000
G00 Z0.5000
G01 Z-1.7600 F200
G01 Y4.3148
G01 X104.3096 Y4.7542
G01 X104.7489 Y4.3148
G01 X113.7489
G01 X114.1882 Y4.7542
G01 X113.7489 Y4.3148
G01 Y-4.0852
G01 X114.1882 Y-4.5245
G01 X113.7489 Y-4.0852
G01 X104.7489
G01 X104.3096 Y-4.5245
G01 X104.7489 Y-4.0852
G01 Z-3.5000
G01 Y4.3148
G01 X104.3096 Y4.7542
G01 X104.7489 Y4.3148
G01 X113.7489
G01 X114.1882 Y4.7542
G01 X113.7489 Y4.3148
G01 Y-4.0852
G01 X114.1882 Y-4.5245
G01 X113.7489 Y-4.0852
G01 X104.7489
G01 X104.3096 Y-4.5245
G01 X104.7489 Y-4.0852
G00 Z15.0000


(Nr. 55: Ausschnitt 19)
G00 X171.2989 Y15.0148 Z15.0000
G00 Z0.5000
G01 Z-1.7600 F200
G01 Y23.4148
G01 X170.8596 Y23.8542
G01 X171.2989 Y23.4148
G01 X180.2989
G01 X180.7382 Y23.8542
G01 X180.2989 Y23.4148
G01 Y15.0148
G01 X180.7382 Y14.5755
G01 X180.2989 Y15.0148
G01 X171.2989
G01 X170.8596 Y14.5755
G01 X171.2989 Y15.0148
G01 Z-3.5000
G01 Y23.4148
G01 X170.8596 Y23.8542
G01 X171.2989 Y23.4148
G01 X180.2989
G01 X180.7382 Y23.8542
G01 X180.2989 Y23.4148
G01 Y15.0148
G01 X180.7382 Y14.5755
G01 X180.2989 Y15.0148
G01 X171.2989
G01 X170.8596 Y14.5755
G01 X171.2989 Y15.0148
G00 Z15.0000


(Nr. 56: Ausschnitt 20)
G00 X190.2989 Y15.0148 Z15.0000
G00 Z0.5000
G01 Z-1.7600 F200
G01 Y23.4148
G01 X189.8596 Y23.8542
G01 X190.2989 Y23.4148
G01 X199.2989
G01 X199.7382 Y23.8542
G01 X199.2989 Y23.4148
G01 Y15.0148
G01 X199.7382 Y14.5755
G01 X199.2989 Y15.0148
G01 X190.2989
G01 X189.8596 Y14.5755
G01 X190.2989 Y15.0148
G01 Z-3.5000
G01 Y23.4148
G01 X189.8596 Y23.8542
G01 X190.2989 Y23.4148
G01 X199.2989
G01 X199.7382 Y23.8542
G01 X199.2989 Y23.4148
G01 Y15.0148
G01 X199.7382 Y14.5755
G01 X199.2989 Y15.0148
G01 X190.2989
G01 X189.8596 Y14.5755
G01 X190.2989 Y15.0148
G00 Z15.0000


(Nr. 57: Ausschnitt 10)
G00 X232.9989 Y-4.0852 Z15.0000
G00 Z0.5000
G01 Z-1.7600 F200
G01 Y4.3148
G01 X232.5596 Y4.7542
G01 X232.9989 Y4.3148
G01 X241.9989
G01 X242.4382 Y4.7542
G01 X241.9989 Y4.3148
G01 Y-4.0852
G01 X242.4382 Y-4.5245
G01 X241.9989 Y-4.0852
G01 X232.9989
G01 X232.5596 Y-4.5245
G01 X232.9989 Y-4.0852
G01 Z-3.5000
G01 Y4.3148
G01 X232.5596 Y4.7542
G01 X232.9989 Y4.3148
G01 X241.9989
G01 X242.4382 Y4.7542
G01 X241.9989 Y4.3148
G01 Y-4.0852
G01 X242.4382 Y-4.5245
G01 X241.9989 Y-4.0852
G01 X232.9989
G01 X232.5596 Y-4.5245
G01 X232.9989 Y-4.0852
G00 Z15.0000


(Nr. 58: Ausschnitt 11)
G00 X7.4489 Y15.0148 Z15.0000
G00 Z0.5000
G01 Z-1.7600 F200
G01 Y23.4148
G01 X7.0096 Y23.8542
G01 X7.4489 Y23.4148
G01 X16.4489
G01 X16.8882 Y23.8542
G01 X16.4489 Y23.4148
G01 Y15.0148
G01 X16.8882 Y14.5755
G01 X16.4489 Y15.0148
G01 X7.4489
G01 X7.0096 Y14.5755
G01 X7.4489 Y15.0148
G01 Z-3.5000
G01 Y23.4148
G01 X7.0096 Y23.8542
G01 X7.4489 Y23.4148
G01 X16.4489
G01 X16.8882 Y23.8542
G01 X16.4489 Y23.4148
G01 Y15.0148
G01 X16.8882 Y14.5755
G01 X16.4489 Y15.0148
G01 X7.4489
G01 X7.0096 Y14.5755
G01 X7.4489 Y15.0148
G00 Z15.0000

M05
M30
